assets/burguer.svg

<svg aria-hidden="true" focusable="false" data-prefix="fas" data-icon="bars" class="svg-inline--fa fa-bars fa-w-14" role="img" xmlns="http://www.w3.org/2000/svg" viewBox="0 0 448 512"><path fill="currentColor" d="M16 132h416c8.837 0 16-7.163 16-16V76c0-8.837-7.163-16-16-16H16C7.163 60 0 67.163 0 76v40c0 8.837 7.163 16 16 16zm0 160h416c8.837 0 16-7.163 16-16v-40c0-8.837-7.163-16-16-16H16c-8.837 0-16 7.163-16 16v40c0 8.837 7.163 16 16 16zm0 160h416c8.837 0 16-7.163 16-16v-40c0-8.837-7.163-16-16-16H16c-8.837 0-16 7.163-16 16v40c0 8.837 7.163 16 16 16z"></path></svg>

<svg id="Capa_1" data-name="Capa 1" xmlns="http://www.w3.org/2000/svg" viewBox="0 0 448 512"><defs><style>.cls-1{fill:#180695;}</style></defs><title>burguer</title><path class="cls-1" d="M16,132H432a16,16,0,0,0,16-16V76a16,16,0,0,0-16-16H16A16,16,0,0,0,0,76v40A16,16,0,0,0,16,132Zm0,160H432a16,16,0,0,0,16-16V236a16,16,0,0,0-16-16H16A16,16,0,0,0,0,236v40A16,16,0,0,0,16,292Zm0,160H432a16,16,0,0,0,16-16V396a16,16,0,0,0-16-16H16A16,16,0,0,0,0,396v40A16,16,0,0,0,16,452Z"/></svg>
